packages/katcn/src/icons/svg/globe-solid.svg

<svg width="24" height="25" viewBox="0 0 24 25" fill="none" xmlns="http://www.w3.org/2000/svg">
<path d="M18.6311 2.50952C18.2303 2.10751 17.6292 2.10751 17.2285 2.50952C16.8277 2.91153 16.8277 3.51454 17.2285 3.91655C20.9354 7.63514 20.9354 13.6653 17.2285 17.3839C13.7219 20.9015 8.21162 21.1025 4.50468 17.9869L5.80712 16.5799C7.10955 17.5849 8.81274 18.1879 10.5159 18.1879C12.5197 18.1879 14.4232 17.3839 15.926 15.9769C17.4289 14.5698 18.1302 12.6603 18.1302 10.6502C18.1302 8.64017 17.3287 6.73062 15.926 5.22308C14.5234 3.71555 12.6199 3.01203 10.5159 3.01203C8.51218 3.01203 6.60862 3.81605 5.10581 5.22308C3.603 6.63012 2.90169 8.64017 2.90169 10.6502C2.90169 12.3588 3.40262 13.8663 4.4045 15.1728L2.30056 17.3839C1.89981 17.7859 1.89981 18.3889 2.30056 18.7909C4.50468 21.002 7.5103 22.208 10.4157 22.208C13.3212 22.208 16.3268 21.1025 18.5309 18.7909C23.1395 14.2683 23.1395 7.03213 18.6311 2.50952Z" fill="black"/>
</svg>

<svg xmlns="http://www.w3.org/2000/svg" fill="none" viewBox="0 0 24 25"><path fill="#000" d="M18.631 2.51a.966.966 0 0 0-1.402 0 .974.974 0 0 0 0 1.407c3.706 3.718 3.706 9.748 0 13.467-3.507 3.517-9.017 3.718-12.724.603l1.302-1.407a7.84 7.84 0 0 0 4.709 1.608c2.004 0 3.907-.804 5.41-2.211s2.204-3.317 2.204-5.327-.801-3.92-2.204-5.427-3.306-2.211-5.41-2.211c-2.004 0-3.907.804-5.41 2.211S2.902 8.64 2.902 10.65q0 2.563 1.502 4.523l-2.103 2.21a.974.974 0 0 0 0 1.408c2.204 2.211 5.21 3.417 8.115 3.417s5.91-1.105 8.115-3.417c4.609-4.523 4.609-11.759.1-16.281"/></svg>
